X:4
T:C'est Nol tous les jours - SM4
C:O. Vercruysse
M:C
L:1/8
K:C
"Do"z2CDE2EE|E3E EE EE|EE EDC2DE|"Sol4"D8|z2DEF2FF|
F3F FF FF|"Fam6"FF FED2EF|"Mim"G8|z2AB"Lam"c2cc|c3c cc dc|
BB AG"Rem"F2GA|"Mim"G8|z2DE"Rem"F2FF|F3F "Fam6"EF GF|"Mim"EE zF "Sol7"ED CB,|"Do"C8|
[M:2/4]z2AB|[M:C]"Lam"c3cB|"Fa"A2A4GF|"Mim"G8-|G6DE|"Rem"F6FE|"Sol4"D2D4"7"CB,|"Do7M"C8-"6"y|\
[M:2/4]C4||
